material/.icons/material/format-overline.svg

<svg xmlns="http://www.w3.org/2000/svg" viewBox="0 0 24 24"><path d="M5 5h14V3H5v2m4.62 11L12 9.67 14.37 16M11 7L5.5 21h2.25l1.12-3h6.25l1.13 3h2.25L13 7h-2z"/></svg>

<?xml version="1.0" encoding="UTF-8"?><!DOCTYPE svg PUBLIC "-//W3C//DTD SVG 1.1//EN" "http://www.w3.org/Graphics/SVG/1.1/DTD/svg11.dtd"><svg xmlns="http://www.w3.org/2000/svg" xmlns:xlink="http://www.w3.org/1999/xlink" version="1.1" id="mdi-format-overline" width="24" height="24" viewBox="0 0 24 24"><path d="M5,5H19V3H5V5M9.62,16L12,9.67L14.37,16M11,7L5.5,21H7.75L8.87,18H15.12L16.25,21H18.5L13,7H11Z" /></svg>
